X: 39771
T: Thank God We're Surrounded By Water
R: jig
M: 6/8
K: Gdorian
|:F|dGG GFG|Acc d2 e|fef dfd|cAG F2 D|
G3 GFG|Acc d2 e|fed cAF|G3 G2:|
|:c|dgg gfg|gfg a2 g|fef dfd|cAG FAc|
dgg gfg|gfg a2 g|fed cAF|G3 G2:|

